X:266
T:Drumraney Lass, The
R:jig
C:William Mullaly
Z:id:hn-jig-266
M:6/8
K:Ador
~A3 ABA | GEE G2B | ABA GBd | edB gdB |
~A3 ABA | GEE G2B | dBA GAB |1 ded dBG :|2 ded dBA ||
|: def g2b | agf g2e | def g2f | edB dBA |
def g2b | agf g2a | bag agf | gag edB :|
P:variations
|: A2A ABA | GEE G2B | ~A3 ABd | edB edB |
A3 ABA | GEE G2B | dBA GAB | ded dBA :|
|: def g2g | agf g2e | def g2d | edB dBA |
def g2g | agf g2a | bgg agf | gfe fdB :|

